contributed-vectors/school_planner.svg

<svg xmlns="http://www.w3.org/2000/svg" xml:space="preserve" style="fill-rule:evenodd;clip-rule:evenodd;stroke-linejoin:round;stroke-miterlimit:2" viewBox="0 0 192 192"><path d="M151.5 10.5c0-5.519-4.481-10-10-10h-107c-5.519 0-10 4.481-10 10v155c0 5.519 4.481 10 10 10h107c5.519 0 10-4.481 10-10v-155Z" style="fill:#9abeff" transform="translate(8 8)"/><path d="M57 8.5v175H42.5c-5.519 0-10-4.481-10-10v-155c0-5.519 4.481-10 10-10H57Z" style="fill:#56595b"/><path d="M78.838 102.262h59.167v13.958H78.838z" style="fill:#728dbe"/><path d="M78.838 102.262h59.167v13.958H78.838z" style="fill:#728dbe" transform="matrix(.7577 0 0 1 19.102 24.242)"/><path d="M141.82 8.5v35.983l-16.907-10.786-16.907 10.786V8.5h33.814Z" style="fill:#fff"/></svg>

<?xml version="1.0" encoding="UTF-8" standalone="no"?>
<!DOCTYPE svg PUBLIC "-//W3C//DTD SVG 1.1//EN" "http://www.w3.org/Graphics/SVG/1.1/DTD/svg11.dtd">
<svg width="100%" height="100%" viewBox="0 0 192 192" version="1.1" xmlns="http://www.w3.org/2000/svg" xmlns:xlink="http://www.w3.org/1999/xlink" xml:space="preserve" xmlns:serif="http://www.serif.com/" style="fill-rule:evenodd;clip-rule:evenodd;stroke-linejoin:round;stroke-miterlimit:2;">
    <g id="Layer1">
        <g>
            <g transform="matrix(1,0,0,1,8,8)">
                <path d="M151.5,10.5C151.5,4.981 147.019,0.5 141.5,0.5L34.5,0.5C28.981,0.5 24.5,4.981 24.5,10.5L24.5,165.5C24.5,171.019 28.981,175.5 34.5,175.5L141.5,175.5C147.019,175.5 151.5,171.019 151.5,165.5L151.5,10.5Z" style="fill:rgb(154,190,255);"/>
            </g>
            <path d="M57,8.5L57,183.5L42.5,183.5C36.981,183.5 32.5,179.019 32.5,173.5L32.5,18.5C32.5,12.981 36.981,8.5 42.5,8.5L57,8.5Z" style="fill:rgb(86,89,91);"/>
            <rect x="78.838" y="102.262" width="59.167" height="13.958" style="fill:rgb(114,141,190);"/>
            <g transform="matrix(0.757701,0,0,1,19.1024,24.242)">
                <rect x="78.838" y="102.262" width="59.167" height="13.958" style="fill:rgb(114,141,190);"/>
            </g>
            <path d="M141.82,8.5L141.82,44.483L124.913,33.697L108.006,44.483L108.006,8.5L141.82,8.5Z" style="fill:white;"/>
        </g>
    </g>
</svg>
